X:1
T:Title
%%score { ( 1 3 ) | 2 }
L:1/8
M:4/4
K:F
V:1 treble nm="Grand Piano"
V:3 treble 
V:2 bass 
V:1
 z4 z2[Q:1/4=100] [Ac]>[GB] | A2 c2 d2 c2 | [Ec]2 [GB]>[FA] [EB]4 | %3
 [EG]2 [_E^F]>[=EG] [Ec]2 [GB]2 |[M:3/4] [FA]6 |[M:1/4] [Ac]>[GB] |[M:4/4] A2 c2 d2 c2 | %7
 [Ec]2 [GB]>[FA] [EB]4 | [EG]2 [_E^F]>[=EG] [Ec]2 E2 |[M:3/4] F6 |[M:1/4] c>B | %11
[M:4/4] z2 F>F F>c d>c | B6 z2 | z2 E>E E>B c>B | A6 z2 | A2 c2 d2 c>c | %16
[M:5/4] [Dc]2 [DB]2 [DB]3 [Fd]3 |[M:4/4] [Fc]2 [DFB]>[CFA] [B,EG]2 [CEA]2 |[M:3/4] [A,CF]6 |] %19
V:2
 z4 z2 [F,C]>[F,C] | [F,CF]2 [F,A,F]2 [F,B,F]2 [F,A,F]2 | [C,G,]2 [C,C]>[C,C] [C,C]4 | %3
 [C,C]2 [C,C]>[C,C] [C,G,]2 [C,C]2 |[M:3/4] [F,C]6 |[M:1/4] [F,C]>[F,C] | %6
[M:4/4] [F,CF]2 [F,A,F]2 [F,B,F]2 [F,A,F]2 | [C,G,]2 [C,C]>[C,C] [C,C]4 | %8
 [C,C]2 [C,C]>[C,C] [C,G,]2 [C,B,C]2 |[M:3/4] [F,A,C]6 |[M:1/4] z2 | %11
[M:4/4] z2 [F,C]>[F,C] [F,C]2 z2 | z z/ [C,C]/ [C,C]>[C,C] [C,C]2 z2 | z2 [C,C]>[C,C] [C,C]2 z2 | %14
 z z/ [F,C]/ [F,C]>[F,C] [F,C]2 [F,C]>[F,C] | [F,CF]2 [F,A,F]2 [F,B,F]2 [F,A,_E]>[F,A,E] | %16
[M:5/4] [B,,B,]2 [B,,F,]2 [B,,F,]3 [=B,,_A,]3 |[M:4/4] [C,A,]2 C,>C, C,2 C,2 |[M:3/4] F,6 |] %19
V:3
 x8 | x8 | x8 | x8 |[M:3/4] x6 |[M:1/4] x2 |[M:4/4] x8 | x8 | x8 |[M:3/4] x6 |[M:1/4] x2 | %11
[M:4/4] A6 z2 | z z/ E/ E>E E2 B>A | G6 z2 | z z/ F/ F>F F2 [Ac]>[GB] | x8 |[M:5/4] x10 | %17
[M:4/4] x8 |[M:3/4] x6 |] %19

